svgs/light/sword.svg

<svg xmlns="http://www.w3.org/2000/svg" viewBox="0 0 512 512"><!--! Font Awesome Pro 6.3.0 by @fontawesome - https://fontawesome.com License - https://fontawesome.com/license (Commercial License) Copyright 2023 Fonticons, Inc. --><path d="M495.1 .0234c-1.102 0 8.81-1.744-95.99 16.01L198.6 217.4c-6.248 6.246-6.248 16.38 0 22.62c6.246 6.25 16.38 6.25 22.62 0l194.1-194.1l61.12-10.38L466.1 96.66l-194.1 194.1c-6.246 6.246-6.246 16.38 0 22.62c6.248 6.25 16.38 6.25 22.62 0l201.4-201.4l15.87-93.75C513.2 8.529 505.6 .0234 495.1 .0234zM122.7 209.4C113.1 203.7 105.8 209.4 103.5 211.7l-34.75 34.74c-5.5 5.375-6.249 13.87-1.999 20.25l45.87 68.75l-39.87 39.87L55.1 366.9c-1.193-.6406-9.32-4.18-15.1 2.5l-35.87 35.99c-5.5 5.375-5.5 14.25 0 19.62l82.87 82.87C89.74 510.6 93.24 512 96.87 512c3.498 0 6.998-1.375 9.748-4.125l35.1-35.87c4.125-4.25 5.25-10.62 2.5-16l-8.375-16.75l39.87-39.88l68.74 45.91c6.559 4.172 14.78 3.25 20.25-2l34.75-34.79c5.262-5.258 5.822-13.14 2.225-19.27L122.7 209.4zM252.2 411.4c-67.98-45.37-51.59-34.46-79.74-53.12l-74.62 74.62C109.9 457.1 107.3 452 110.7 458.6l-13.87 13.88L39.5 415.1l13.87-13.88c6.633 3.398 1.525 .8359 25.75 12.88l74.62-74.62c-18.66-28.16-7.758-11.77-53.12-79.74l14.12-14.25l151.7 151.7L252.2 411.4z"/></svg>

<svg xmlns="http://www.w3.org/2000/svg" viewBox="0 0 512 512"><!-- Font Awesome Pro 6.0.0-alpha2 by @fontawesome - https://fontawesome.com License - https://fontawesome.com/license (Commercial License) --><path d="M495.965 0.047C494.863 0.047 504.775 -1.703 399.973 16.047L198.611 217.402C192.363 223.648 192.363 233.777 198.611 240.023C204.857 246.273 214.986 246.273 221.234 240.023L415.346 45.918L476.467 35.543L466.092 96.664L271.98 290.77C265.734 297.016 265.734 307.148 271.98 313.391C278.229 319.641 288.357 319.641 294.604 313.391L495.965 112.039L511.84 18.297C513.215 8.547 505.59 0.047 495.965 0.047ZM122.701 209.363C113.057 203.703 105.75 209.395 103.492 211.652L68.746 246.398C63.246 251.773 62.496 260.273 66.746 266.648L112.617 335.391L72.744 375.262L55.996 366.891C54.803 366.25 46.676 362.711 39.998 369.391L4.125 405.383C-1.375 410.758 -1.375 419.633 4.125 425.008L86.994 507.875C89.744 510.625 93.244 512 96.869 512C100.367 512 103.867 510.625 106.617 507.875L142.615 472.004C146.74 467.754 147.865 461.379 145.115 456.004L136.74 439.258L176.613 399.383L245.357 445.383C251.916 449.555 260.139 448.633 265.605 443.383L300.354 408.508C305.615 403.25 306.176 395.367 302.578 389.238L122.701 209.363ZM252.232 411.383C184.256 366.016 200.641 376.922 172.488 358.266L97.867 432.883C109.904 457.102 107.346 452 110.742 458.629L96.869 472.504L39.498 415.133L53.371 401.258C60.004 404.656 54.896 402.094 79.119 414.133L153.738 339.516C135.074 311.359 145.98 327.742 100.617 259.773L114.742 245.523L266.48 397.258L252.232 411.383Z"/></svg>
